!!!SOCIAL_FUNCTION:	war songs
!!!PDT:	1922
!!!OTL: No_70_War_Song_(d).krn
!!!REG: Southwest
!!!LANG: Non-Tone
!!!LING_GROUP: Uto-Aztecan
**kern	**kern
*staff2	*staff1
=1-	=1-
=	=
*clefF4	*clefF4
*k[b-e-a-d-g-]	*k[b-e-a-d-g-]
*M2/4	*M2/4
8GG-/L	8.d-\L
8GG-/J	.
.	16A-\Jk
8GG-/L	16d-\LL
.	16A-\J
8GG-/J	8A-\J
=2	=2
8GG-/L	8d-\L
8GG-/J	8B-\J
8GG-/L	16A-\LL
.	16E-\J
8GG-/J	8E-\J
=3	=3
2r	8.d-\L
.	16A-\Jk
.	16d-\LL
.	16A-\J
.	8A-\J
=4	=4
2r	8d-\L
.	8B-\J
.	16A-\LL
.	16E-\J
.	8E-\J
=5	=5
2r	8B-\L
.	8A-\J
.	16F\LL
.	16D-\J
.	8D-\J
=6||	=6||
*M3/4	*M3/4
2.r	8.E-\L
.	16D-\Jk
.	16E-\LL
.	16D-\J
.	8D-\J
.	8.E-\L
.	16D-\Jk
=7||	=7||
*M2/4	*M2/4
2r	4.D-\
.	8D-\
=8||	=8||
*M3/4	*M3/4
2.r	2.D-\
=9||	=9||
*M2/4	*M2/4
2r	8.A-\L
.	16F\Jk
.	16A-\LL
.	16E-\J
.	8E-\J
=10	=10
2r	8A-\L
.	8F\J
.	16E-\LL
.	16D-\J
.	8D-\J
=11	=11
2r	8.A-\L
.	16F\Jk
.	16A-\LL
.	16E-\J
.	8E-\J
=12	=12
2r	8A-\L
.	8F\J
.	16E-\LL
.	16D-\J
.	8D-\J
=13||	=13||
*M3/4	*M3/4
2.r	8.E-\L
.	16D-\Jk
.	16E-\LL
.	16D-\J
.	8D-\J
.	8.E-\L
.	16D-\Jk
=14||	=14||
*M2/4	*M2/4
2r	4.F\
.	8F\
=15	=15
2r	2D-\
=16	=16
2r	2A-\
=17	=17
2r	2A-\
==:|!	==:|!
*-	*-
